actions/22x22-light/im-icq.svg

<svg xmlns="http://www.w3.org/2000/svg" viewBox="0 0 22 22">
 <defs id="defs3051">
   <style type="text/css" id="current-color-scheme">
     .ColorScheme-Text {
       color:#4d4d4d;
     }
     </style>
 </defs>
   <path
      style="fill:currentColor;fill-opacity:1;stroke:none"
      d="m11 3c-1.6116721 0-2.9195054 1.2943289-2.9433594 2.9003906-1.4027538-.7823156-3.1785585-.2962001-3.984375 1.0996094-.8058164 1.3956918-.3398766 3.176372 1.0390625 4-1.3788999.823707-1.8449182 2.604269-1.0390625 4 .8058557 1.39577 2.5816212 1.881964 3.984375 1.099609.0238147 1.606062 1.3316873 2.900469 2.9433594 2.900391 1.611711 0 2.919505-1.294407 2.943359-2.900391 1.402754.782277 3.178637.29624 3.984375-1.099609.805856-1.39577.339799-3.176372-1.039062-4 1.378861-.823707 1.844957-2.6042689 1.039062-4-.805855-1.3957311-2.58166-1.881925-3.984375-1.0996094-.023932-1.605944-1.331726-2.9003906-2.943359-2.9003906zm0 5.3027344c1.489499 0 2.697266 1.2076881 2.697266 2.6972656 0 1.489578-1.207728 2.697266-2.697266 2.697266-1.4895383 0-2.6972656-1.207688-2.6972656-2.697266 0-1.4895775 1.2077273-2.6972656 2.6972656-2.6972656zm0 1.1972656a1.5 1.5 0 0 0 -1.5 1.5 1.5 1.5 0 0 0 1.5 1.5 1.5 1.5 0 0 0 1.5-1.5 1.5 1.5 0 0 0 -1.5-1.5z"
      class="ColorScheme-Text" />
</svg>

<svg xmlns="http://www.w3.org/2000/svg" viewBox="0 0 22 22">
  <defs id="defs3051">
    <style type="text/css" id="current-color-scheme">
      .ColorScheme-Text {
        color:#4d4d4d
      }
      </style>
  </defs>
 <path 
     style="fill:currentColor;fill-opacity:1;stroke:none"      
	 class="ColorScheme-Text"
        d="M 11 3 C 9.3883279 3 8.0804946 4.2943289 8.0566406 5.9003906 C 6.6538868 5.118075 4.8780821 5.6041905 4.0722656 7 C 3.2664492 8.3956918 3.732389 10.176372 5.1113281 11 C 3.7324282 11.823707 3.2664099 13.604269 4.0722656 15 C 4.8781213 16.39577 6.6538868 16.881964 8.0566406 16.099609 C 8.0804553 17.705671 9.3883279 19.000078 11 19 C 12.611711 19 13.919505 17.705593 13.943359 16.099609 C 15.346113 16.881886 17.121996 16.395849 17.927734 15 C 18.73359 13.60423 18.267533 11.823628 16.888672 11 C 18.267533 10.176293 18.733629 8.3957311 17.927734 7 C 17.121879 5.6042689 15.346074 5.118075 13.943359 5.9003906 C 13.919427 4.2944466 12.611633 3 11 3 z M 11 8.3027344 C 12.489499 8.3027344 13.697266 9.5104225 13.697266 11 C 13.697266 12.489578 12.489538 13.697266 11 13.697266 C 9.5104617 13.697266 8.3027344 12.489578 8.3027344 11 C 8.3027344 9.5104225 9.5104617 8.3027344 11 8.3027344 z M 11 9.5 A 1.5 1.5 0 0 0 9.5 11 A 1.5 1.5 0 0 0 11 12.5 A 1.5 1.5 0 0 0 12.5 11 A 1.5 1.5 0 0 0 11 9.5 z "
     />
</svg>
